X: 1
T: Greensleeves
M: 6/8
L: 1/8
R: jig
K: Amin
|:AB|c2 c cde|dGG GAB|cAA ABc|BEE EAB|
c2 c cde|dGG GAB|cAA BcB|A3 A:|
|:ce|g2 g gfe|dGG G2 d|a2 a aba|gee eef|
gag gfe|dGG GAB|cAA BcB|A3 A:|
